storefront-child/assets/images/svg/remove-product-hover.svg

<?xml version="1.0" encoding="UTF-8"?><svg id="a" xmlns="http://www.w3.org/2000/svg" viewBox="0 0 24 24"><defs><style>.b{fill:none;stroke:#70a098;}.c{fill:#1b2322;}</style></defs><circle class="b" cx="12" cy="12" r="11.5"/><path class="c" d="M12.59,11.99l3.32-3.31c.07-.08,.1-.17,.1-.27s-.05-.2-.12-.27c-.07-.07-.17-.11-.27-.12-.1,0-.2,.03-.28,.1l-3.32,3.31-3.32-3.31c-.08-.08-.18-.12-.28-.12s-.21,.04-.28,.12-.12,.18-.12,.28,.04,.21,.12,.28l3.32,3.31-3.32,3.31s-.08,.08-.1,.13c-.02,.05-.04,.1-.04,.16,0,.05,0,.11,.03,.16s.05,.1,.09,.14c.04,.04,.09,.07,.14,.09,.05,.02,.11,.03,.16,.03,.06,0,.11-.02,.16-.04,.05-.02,.09-.06,.13-.1l3.32-3.31,3.32,3.31c.08,.07,.18,.1,.28,.1,.1,0,.2-.05,.27-.12,.07-.07,.11-.17,.12-.27,0-.1-.03-.2-.1-.27l-3.32-3.31Z"/></svg>

<?xml version="1.0" encoding="utf-8"?>
<!-- Generator: Adobe Illustrator 26.4.0, SVG Export Plug-In . SVG Version: 6.00 Build 0)  -->
<svg version="1.1" id="a" xmlns="http://www.w3.org/2000/svg" xmlns:xlink="http://www.w3.org/1999/xlink" x="0px" y="0px"
	 viewBox="0 0 24 24" style="enable-background:new 0 0 24 24;" xml:space="preserve">
<style type="text/css">
	.st0{fill:none;stroke:#302C2C;}
	.st1{fill:#302C2C;}
</style>
<circle class="st0" cx="12" cy="12" r="11.5"/>
<path class="st1" d="M12.6,12l3.3-3.3C16,8.6,16,8.5,16,8.4S16,8.2,15.9,8.1C15.8,8.1,15.7,8,15.6,8c-0.1,0-0.2,0-0.3,0.1L12,11.4
	L8.7,8.1C8.6,8,8.5,8,8.4,8S8.2,8,8.1,8.1S8,8.3,8,8.4s0,0.2,0.1,0.3l3.3,3.3l-3.3,3.3c0,0-0.1,0.1-0.1,0.1s0,0.1,0,0.2
	c0,0.1,0,0.1,0,0.2s0.1,0.1,0.1,0.1S8.2,16,8.3,16s0.1,0,0.2,0c0.1,0,0.1,0,0.2,0c0.1,0,0.1-0.1,0.1-0.1l3.3-3.3l3.3,3.3
	c0.1,0.1,0.2,0.1,0.3,0.1c0.1,0,0.2-0.1,0.3-0.1c0.1-0.1,0.1-0.2,0.1-0.3c0-0.1,0-0.2-0.1-0.3L12.6,12L12.6,12z"/>
</svg>
